projects/flag-game/flags/Slovenia.svg

<svg viewBox="0 0 1000 502" xmlns="http://www.w3.org/2000/svg" xmlns:xlink="http://www.w3.org/1999/xlink"><clipPath id="a"><path d="m0 1h1000v500.601562h-1000zm0 0"/></clipPath><g clip-path="url(#a)"><path d="m.0507812 1.757812h998.9570308v499.480469h-998.9570308zm0 0" fill="#ed1c24" fill-rule="evenodd"/></g><g fill-rule="evenodd"><path d="m.0507812 1.757812h998.9570308v332.984376h-998.9570308zm0 0" fill="#005da4"/><path d="m.0507812 1.757812h998.9570308v166.492188h-998.9570308zm0 0" fill="#fff"/><path d="m309.164062 176.941406 5.242188-77.402344c-20.113281-9.53125-42.355469-14.535156-64.613281-14.535156-22.257813 0-44.503907 5.003906-64.617188 14.535156l5.242188 77.402344c1.144531 16.859375 7.53125 33.324219 18.054687 46.542969 10.53125 13.214844 25.148438 23.125 41.320313 28.007813 16.171875-4.882813 30.789062-14.792969 41.3125-28.007813 10.527343-13.21875 16.914062-29.683594 18.058593-46.542969zm0 0" fill="#005da4"/><path d="m201.328125 187.433594c2.746094 12.363281 8.714844 24 17.152344 33.449218 8.4375 9.449219 19.332031 16.6875 31.3125 20.808594 11.976562-4.121094 22.867187-11.359375 31.308593-20.808594 8.4375-9.449218 14.402344-21.085937 17.152344-33.449218l-24.230468-32.3125-9.695313 12.925781-14.535156-29.078125-14.539063 29.078125-9.695312-12.925781zm0 0" fill="#fff"/><path d="m203.496094 195.511719c4.226562 7.324219 14.742187 10.140625 22.066406 5.90625 4.882812-2.816407 11.269531-2.816407 16.152344 0 4.882812 2.824219 11.273437 2.824219 16.152344 0 4.882812-2.816407 11.273437-2.816407 16.15625 0 7.324218 4.234375 17.835937 1.417969 22.066406-5.90625v4.660156c-4.230469 7.324219-14.742188 10.140625-22.066406 5.914063-4.882813-2.820313-11.273438-2.820313-16.15625 0-4.878907 2.816406-11.269532 2.816406-16.152344 0-4.882813-2.820313-11.269532-2.820313-16.152344 0-7.324219 4.226562-17.839844 1.410156-22.066406-5.914063zm0 0" fill="#005da4"/><path d="m203.496094 204.832031c4.226562 7.328125 14.742187 10.144531 22.066406 5.917969 4.882812-2.824219 11.269531-2.824219 16.152344 0 4.882812 2.820312 11.273437 2.820312 16.152344 0 4.882812-2.824219 11.273437-2.824219 16.15625 0 7.324218 4.226562 17.835937 1.410156 22.066406-5.917969v4.664063c-4.230469 7.328125-14.742188 10.144531-22.066406 5.914062-4.882813-2.816406-11.273438-2.816406-16.15625 0-4.878907 2.820313-11.269532 2.820313-16.152344 0-4.882813-2.816406-11.269532-2.816406-16.152344 0-7.324219 4.230469-17.839844 1.414063-22.066406-5.914062zm0 0" fill="#005da4"/><path d="m249.792969 116.757812 1.210937 3.960938 4.03125-.933594-2.820312 3.03125 2.820312 3.027344-4.03125-.929688-1.210937 3.957032-1.210938-3.957032-4.035156.929688 2.824219-3.027344-2.824219-3.03125 4.035156.933594zm0 0" fill="#fd0"/><path d="m231.621094 92.527344 1.210937 3.960937 4.03125-.929687-2.820312 3.027344 2.820312 3.027343-4.03125-.929687-1.210937 3.957031-1.214844-3.957031-4.035156.929687 2.824218-3.027343-2.824218-3.027344 4.035156.929687zm0 0" fill="#fd0"/><path d="m267.964844 92.527344 1.214844 3.960937 4.03125-.929687-2.820313 3.027344 2.820313 3.027343-4.03125-.929687-1.214844 3.957031-1.210938-3.957031-4.035156.929687 2.820312-3.027343-2.820312-3.027344 4.035156.929687zm0 0" fill="#fd0"/><path d="m189.710938 97.480469 5.363281 79.148437c1.0625 15.683594 6.929687 31.011719 16.613281 43.390625 9.679688 12.382813 23.140625 21.769531 38.105469 26.585938 14.960937-4.816407 28.421875-14.203125 38.101562-26.585938 9.683594-12.378906 15.554688-27.707031 16.613281-43.390625l5.367188-79.148437c1.5.710937 3.011719 1.398437 4.53125 2.054687l-5.242188 77.40625c-1.144531 16.855469-7.53125 33.324219-18.058593 46.539063-10.523438 13.21875-25.140625 23.128906-41.3125 28.011719-16.171875-4.882813-30.789063-14.792969-41.320313-28.011719-10.523437-13.214844-16.910156-29.683594-18.054687-46.539063l-5.242188-77.40625c1.523438-.65625 3.035157-1.34375 4.535157-2.054687zm0 0" fill="#ed1c24"/></g></svg>

<?xml version="1.0" encoding="UTF-8"?>
<svg xmlns="http://www.w3.org/2000/svg" xmlns:xlink="http://www.w3.org/1999/xlink" viewBox="0 0 1000 502" version="1.1">
<defs>
<clipPath id="clip1">
  <path d="M 0 1 L 1000 1 L 1000 501.601562 L 0 501.601562 Z M 0 1 "/>
</clipPath>
</defs>
<g id="surface1080">
<g clip-path="url(#clip1)" clip-rule="nonzero">
<path style=" stroke:none;fill-rule:evenodd;fill:rgb(92.939758%,10.980225%,14.117432%);fill-opacity:1;" d="M 0.0507812 1.757812 L 999.007812 1.757812 L 999.007812 501.238281 L 0.0507812 501.238281 Z M 0.0507812 1.757812 "/>
</g>
<path style=" stroke:none;fill-rule:evenodd;fill:rgb(0%,36.470032%,64.312744%);fill-opacity:1;" d="M 0.0507812 1.757812 L 999.007812 1.757812 L 999.007812 334.742188 L 0.0507812 334.742188 Z M 0.0507812 1.757812 "/>
<path style=" stroke:none;fill-rule:evenodd;fill:rgb(99.998474%,99.998474%,99.998474%);fill-opacity:1;" d="M 0.0507812 1.757812 L 999.007812 1.757812 L 999.007812 168.25 L 0.0507812 168.25 Z M 0.0507812 1.757812 "/>
<path style=" stroke:none;fill-rule:evenodd;fill:rgb(0%,36.470032%,64.312744%);fill-opacity:1;" d="M 309.164062 176.941406 L 314.40625 99.539062 C 294.292969 90.007812 272.050781 85.003906 249.792969 85.003906 C 227.535156 85.003906 205.289062 90.007812 185.175781 99.539062 L 190.417969 176.941406 C 191.5625 193.800781 197.949219 210.265625 208.472656 223.484375 C 219.003906 236.699219 233.621094 246.609375 249.792969 251.492188 C 265.964844 246.609375 280.582031 236.699219 291.105469 223.484375 C 301.632812 210.265625 308.019531 193.800781 309.164062 176.941406 Z M 309.164062 176.941406 "/>
<path style=" stroke:none;fill-rule:evenodd;fill:rgb(99.998474%,99.998474%,99.998474%);fill-opacity:1;" d="M 201.328125 187.433594 C 204.074219 199.796875 210.042969 211.433594 218.480469 220.882812 C 226.917969 230.332031 237.8125 237.570312 249.792969 241.691406 C 261.769531 237.570312 272.660156 230.332031 281.101562 220.882812 C 289.539062 211.433594 295.503906 199.796875 298.253906 187.433594 L 274.023438 155.121094 L 264.328125 168.046875 L 249.792969 138.96875 L 235.253906 168.046875 L 225.558594 155.121094 Z M 201.328125 187.433594 "/>
<path style=" stroke:none;fill-rule:evenodd;fill:rgb(0%,36.470032%,64.312744%);fill-opacity:1;" d="M 203.496094 195.511719 C 207.722656 202.835938 218.238281 205.652344 225.5625 201.417969 C 230.445312 198.601562 236.832031 198.601562 241.714844 201.417969 C 246.597656 204.242188 252.988281 204.242188 257.867188 201.417969 C 262.75 198.601562 269.140625 198.601562 274.023438 201.417969 C 281.347656 205.652344 291.859375 202.835938 296.089844 195.511719 L 296.089844 200.171875 C 291.859375 207.496094 281.347656 210.3125 274.023438 206.085938 C 269.140625 203.265625 262.75 203.265625 257.867188 206.085938 C 252.988281 208.902344 246.597656 208.902344 241.714844 206.085938 C 236.832031 203.265625 230.445312 203.265625 225.5625 206.085938 C 218.238281 210.3125 207.722656 207.496094 203.496094 200.171875 Z M 203.496094 195.511719 "/>
<path style=" stroke:none;fill-rule:evenodd;fill:rgb(0%,36.470032%,64.312744%);fill-opacity:1;" d="M 203.496094 204.832031 C 207.722656 212.160156 218.238281 214.976562 225.5625 210.75 C 230.445312 207.925781 236.832031 207.925781 241.714844 210.75 C 246.597656 213.570312 252.988281 213.570312 257.867188 210.75 C 262.75 207.925781 269.140625 207.925781 274.023438 210.75 C 281.347656 214.976562 291.859375 212.160156 296.089844 204.832031 L 296.089844 209.496094 C 291.859375 216.824219 281.347656 219.640625 274.023438 215.410156 C 269.140625 212.59375 262.75 212.59375 257.867188 215.410156 C 252.988281 218.230469 246.597656 218.230469 241.714844 215.410156 C 236.832031 212.59375 230.445312 212.59375 225.5625 215.410156 C 218.238281 219.640625 207.722656 216.824219 203.496094 209.496094 Z M 203.496094 204.832031 "/>
<path style=" stroke:none;fill-rule:evenodd;fill:rgb(99.998474%,86.665344%,0%);fill-opacity:1;" d="M 249.792969 116.757812 L 251.003906 120.71875 L 255.035156 119.785156 L 252.214844 122.816406 L 255.035156 125.84375 L 251.003906 124.914062 L 249.792969 128.871094 L 248.582031 124.914062 L 244.546875 125.84375 L 247.371094 122.816406 L 244.546875 119.785156 L 248.582031 120.71875 Z M 249.792969 116.757812 "/>
<path style=" stroke:none;fill-rule:evenodd;fill:rgb(99.998474%,86.665344%,0%);fill-opacity:1;" d="M 231.621094 92.527344 L 232.832031 96.488281 L 236.863281 95.558594 L 234.042969 98.585938 L 236.863281 101.613281 L 232.832031 100.683594 L 231.621094 104.640625 L 230.40625 100.683594 L 226.371094 101.613281 L 229.195312 98.585938 L 226.371094 95.558594 L 230.40625 96.488281 Z M 231.621094 92.527344 "/>
<path style=" stroke:none;fill-rule:evenodd;fill:rgb(99.998474%,86.665344%,0%);fill-opacity:1;" d="M 267.964844 92.527344 L 269.179688 96.488281 L 273.210938 95.558594 L 270.390625 98.585938 L 273.210938 101.613281 L 269.179688 100.683594 L 267.964844 104.640625 L 266.753906 100.683594 L 262.71875 101.613281 L 265.539062 98.585938 L 262.71875 95.558594 L 266.753906 96.488281 Z M 267.964844 92.527344 "/>
<path style=" stroke:none;fill-rule:evenodd;fill:rgb(92.939758%,10.980225%,14.117432%);fill-opacity:1;" d="M 189.710938 97.480469 L 195.074219 176.628906 C 196.136719 192.3125 202.003906 207.640625 211.6875 220.019531 C 221.367188 232.402344 234.828125 241.789062 249.792969 246.605469 C 264.753906 241.789062 278.214844 232.402344 287.894531 220.019531 C 297.578125 207.640625 303.449219 192.3125 304.507812 176.628906 L 309.875 97.480469 C 311.375 98.191406 312.886719 98.878906 314.40625 99.535156 L 309.164062 176.941406 C 308.019531 193.796875 301.632812 210.265625 291.105469 223.480469 C 280.582031 236.699219 265.964844 246.609375 249.792969 251.492188 C 233.621094 246.609375 219.003906 236.699219 208.472656 223.480469 C 197.949219 210.265625 191.5625 193.796875 190.417969 176.941406 L 185.175781 99.535156 C 186.699219 98.878906 188.210938 98.191406 189.710938 97.480469 Z M 189.710938 97.480469 "/>
</g>
</svg>
